static/images/icons/menu.svg

<svg viewBox="0 0 16 16" xmlns="http://www.w3.org/2000/svg"><path d="M15 12v2H1v-2h14zm0-5v2H1V7h14zm0-5v2H1V2h14z" fill="#000" fill-rule="nonzero"/></svg>

<?xml version="1.0" encoding="UTF-8"?>
<svg width="16px" height="16px" viewBox="0 0 16 16" version="1.1" xmlns="http://www.w3.org/2000/svg" xmlns:xlink="http://www.w3.org/1999/xlink">
    <title>menu</title>
    <g id="menu" stroke="none" stroke-width="1" fill="none" fill-rule="evenodd">
        <path d="M15,12 L15,14 L1,14 L1,12 L15,12 Z M15,7 L15,9 L1,9 L1,7 L15,7 Z M15,2 L15,4 L1,4 L1,2 L15,2 Z" id="Combined-Shape" fill="#000000" fill-rule="nonzero"></path>
    </g>
</svg>
